; generated by Slic3r 0.9.10b on 2015-08-06 at 18:29:21
; edited by Marvin Baral 7.8.15 at 9:49 because of job interruption caused by cooled extruder

; layer_height = 0.1
; perimeters = 3
; top_solid_layers = 3
; bottom_solid_layers = 3
; fill_density = 0.4
; perimeter_speed = 40
; infill_speed = 45
; travel_speed = 100
; nozzle_diameter = 0.5
; filament_diameter = 1.75
; extrusion_multiplier = 1.0
; perimeters extrusion width = 0.85mm
; infill extrusion width = 1.98mm
; solid infill extrusion width = 0.13mm
; top infill extrusion width = 0.18mm
; first layer extrusion width = 0.45mm

G21 ; set units to millimeters
M107
M190 S63 ; wait for bed temperature to be reached
M104 S220 ; set temperature
G28 X0  ; home X axis
G28 Y0  ; home Y axis
M109 S220 ; wait for temperature to be reached
G90 ; use absolute coordinates
M83 ; use relative distances for extrusion
G1 F2100.000 E-2.60000
G1 Z0 F6000.000
G1 X16.54 Y2.000
G1 F2100.000 E2.60000
G1 X16.66 Y0.740 F1680.000 E0.07273
G1 X17.03 Y-0.470 E0.07271
G1 X17.63 Y-1.590 E0.07301
G1 X18.43 Y-2.570 E0.07270
G1 X19.41 Y-3.370 E0.07270
G1 X20.53 Y-3.970 E0.07301
G1 X21.74 Y-4.340 E0.07271
G1 X23 Y-4.460 E0.07273
G1 X149 Y-4.460 E7.24056
G1 X150.26 Y-4.340 E0.07273
G1 X151.47 Y-3.970 E0.07271
G1 X152.59 Y-3.370 E0.07301
G1 X153.57 Y-2.570 E0.07270
G1 X154.37 Y-1.590 E0.07270
G1 X154.97 Y-0.470 E0.07301
G1 X155.34 Y0.740 E0.07271
G1 X155.46 Y2.000 E0.07273
G1 X155.46 Y128.000 E7.24056
G1 X155.34 Y129.260 E0.07273
G1 X154.97 Y130.470 E0.07271
G1 X154.37 Y131.590 E0.07301
G1 X153.57 Y132.570 E0.07270
G1 X152.59 Y133.370 E0.07270
G1 X151.47 Y133.970 E0.07301
G1 X150.26 Y134.340 E0.07271
G1 X149 Y134.460 E0.07273
G1 X23 Y134.460 E7.24056
G1 X21.74 Y134.340 E0.07273
G1 X20.53 Y133.970 E0.07271
G1 X19.41 Y133.370 E0.07301
G1 X18.43 Y132.570 E0.07270
G1 X17.63 Y131.590 E0.07270
G1 X17.03 Y130.470 E0.07301
G1 X16.66 Y129.260 E0.07271
G1 X16.54 Y128.000 E0.07273
G1 X16.54 Y2.069 E7.23659
G1 F2100.000 E-2.60000 ;first testcircle
G1 Z0 F6000.000
G1 X16.54 Y2.000
G1 F2100.000 E2.60000
G1 X16.66 Y0.740 F1680.000 E0.07273
G1 X17.03 Y-0.470 E0.07271
G1 X17.63 Y-1.590 E0.07301
G1 X18.43 Y-2.570 E0.07270
G1 X19.41 Y-3.370 E0.07270
G1 X20.53 Y-3.970 E0.07301
G1 X21.74 Y-4.340 E0.07271
G1 X23 Y-4.460 E0.07273
G1 X149 Y-4.460 E7.24056
G1 X150.26 Y-4.340 E0.07273
G1 X151.47 Y-3.970 E0.07271
G1 X152.59 Y-3.370 E0.07301
G1 X153.57 Y-2.570 E0.07270
G1 X154.37 Y-1.590 E0.07270
G1 X154.97 Y-0.470 E0.07301
G1 X155.34 Y0.740 E0.07271
G1 X155.46 Y2.000 E0.07273
G1 X155.46 Y128.000 E7.24056
G1 X155.34 Y129.260 E0.07273
G1 X154.97 Y130.470 E0.07271
G1 X154.37 Y131.590 E0.07301
G1 X153.57 Y132.570 E0.07270
G1 X152.59 Y133.370 E0.07270
G1 X151.47 Y133.970 E0.07301
G1 X150.26 Y134.340 E0.07271
G1 X149 Y134.460 E0.07273
G1 X23 Y134.460 E7.24056
G1 X21.74 Y134.340 E0.07273
G1 X20.53 Y133.970 E0.07271
G1 X19.41 Y133.370 E0.07301
G1 X18.43 Y132.570 E0.07270
G1 X17.63 Y131.590 E0.07270
G1 X17.03 Y130.470 E0.07301
G1 X16.66 Y129.260 E0.07271
G1 X16.54 Y128.000 E0.07273
G1 X16.54 Y2.069 E7.23659
G1 F2100.000 E-2.60000 ;second testcircle
G1 Z0 F6000.000
G1 X16.54 Y2.000
G1 F2100.000 E2.60000
G1 X16.66 Y0.740 F1680.000 E0.07273
G1 X17.03 Y-0.470 E0.07271
G1 X17.63 Y-1.590 E0.07301
G1 X18.43 Y-2.570 E0.07270
G1 X19.41 Y-3.370 E0.07270
G1 X20.53 Y-3.970 E0.07301
G1 X21.74 Y-4.340 E0.07271
G1 X23 Y-4.460 E0.07273
G1 X149 Y-4.460 E7.24056
G1 X150.26 Y-4.340 E0.07273
G1 X151.47 Y-3.970 E0.07271
G1 X152.59 Y-3.370 E0.07301
G1 X153.57 Y-2.570 E0.07270
G1 X154.37 Y-1.590 E0.07270
G1 X154.97 Y-0.470 E0.07301
G1 X155.34 Y0.740 E0.07271
G1 X155.46 Y2.000 E0.07273
G1 X155.46 Y128.000 E7.24056
G1 X155.34 Y129.260 E0.07273
G1 X154.97 Y130.470 E0.07271
G1 X154.37 Y131.590 E0.07301
G1 X153.57 Y132.570 E0.07270
G1 X152.59 Y133.370 E0.07270
G1 X151.47 Y133.970 E0.07301
G1 X150.26 Y134.340 E0.07271
G1 X149 Y134.460 E0.07273
G1 X23 Y134.460 E7.24056
G1 X21.74 Y134.340 E0.07273
G1 X20.53 Y133.970 E0.07271
G1 X19.41 Y133.370 E0.07301
G1 X18.43 Y132.570 E0.07270
G1 X17.63 Y131.590 E0.07270
G1 X17.03 Y130.470 E0.07301
G1 X16.66 Y129.260 E0.07271
G1 X16.54 Y128.000 E0.07273
G1 X16.54 Y2.069 E7.23659
G1 F2100.000 E-2.60000 ;third testcircle
G1 Z0 F6000.000 ;start here for continue job
G1 X126.414 Y4.586
G1 F2100.000 E2.60000
G1 X126.414 Y24.586 F1680.000 E0.68893
G1 X146.414 Y24.586 E0.68893
G1 X146.414 Y102.414 E2.68093
G1 X66.414 Y102.414 E2.75573
G1 X66.414 Y104.586 E0.07480
G1 X126.414 Y104.586 E2.06680
G1 X126.414 Y126.414 E0.71747
G1 X45.586 Y125.414 E2.78427
G1 X45.586 Y105.414 E0.68893
G1 X25.586 Y105.414 E0.68893
G1 X25.586 Y25.586 E2.78427
G1 X45.586 Y24.586 E0.68893
G1 X45.586 Y4.586 E0.68893
G1 X126.29 Y4.586 E2.77999
G1 X126 Y5.303 F6000.000
G1 F2100.000 E-2.60000
G1 X43.929 Y107.071 F6000.000
G1 F2100.000 E2.60000
G1 X43.929 Y125.929 F2400.000 E0.64957
G1 X25.071 Y125.929 E0.64957
G1 X25.071 Y107.071 E0.64957
G1 X43.804 Y107.071 E0.64529
G1 X24.243 Y126.757 F6000.000
G1 X24.243 Y106.243 F2400.000 E0.70665
G1 X44.757 Y106.243 E0.70665
G1 X44.757 Y126.757 E0.70665
G1 X24.367 Y126.757 E0.70237
G1 X25.071 Y22.929 F6000.000
G1 X25.071 Y4.071 F2400.000 E0.64957
G1 X43.929 Y4.071 E0.64957
G1 X43.929 Y22.929 E0.64957
G1 X25.196 Y22.929 E0.64529
G1 X24.243 Y3.243 F6000.000
G1 X44.757 Y3.243 F2400.000 E0.70665
G1 X44.757 Y23.757 E0.70665
G1 X24.243 Y23.757 E0.70665
G1 X24.243 Y3.367 E0.70237
G1 X128.071 Y4.071 F6000.000
G1 X146.929 Y4.071 F2400.000 E0.64957
G1 X146.929 Y22.929 E0.64957
G1 X128.071 Y22.929 E0.64957
G1 X128.071 Y4.196 E0.64529
G1 X127.243 Y23.757 F6000.000
G1 X127.243 Y3.243 F2400.000 E0.70665
G1 X147.757 Y3.243 E0.70665
G1 X147.757 Y23.757 E0.70665
G1 X127.367 Y23.757 E0.70237
G1 F2100.000 E-2.60000
G1 X128.071 Y104.071 F6000.000
G1 F2100.000 E2.60000
G1 X146.929 Y104.071 F2400.000 E0.64957
G1 X146.929 Y125.929 E0.75291
G1 X128.071 Y125.929 E0.64957
G1 X128.071 Y104.196 E0.74863
G1 X127.243 Y103.243 F6000.000
G1 X147.757 Y103.243 F2400.000 E0.70665
G1 X147.757 Y126.757 E0.80999
G1 X127.243 Y126.757 E0.70665
G1 X127.243 Y103.367 E0.80571
G1 X148.586 Y127.586 F6000.000
G1 X23.414 Y127.586 F1680.000 E4.31174
G1 X23.414 Y2.414 E4.31174
G1 X148.586 Y2.414 E4.31174
G1 X148.586 Y127.461 E4.30746
G1 X147.868 Y127.171 F6000.000
G1 F2100.000 E-2.60000
G1 X66.5 Y106.400 F6000.000
G1 F2100.000 E2.60000
G1 X66.5 Y105.478 F2400.000 E0.03177
G1 X66.5 Y106.400 F6000.000
G1 X66.5 Y106.522 F2400.000 E0.00421
G1 X66.5 Y106.522 F6000.000
G1 X66.5 Y106.522 F2400.000
G1 F2100.000 E-2.60000
G1 X43.467 Y110.752 F6000.000
G1 F2100.000 E2.60000
G1 X43.467 Y120.569 F2700.000 E0.80143
G1 X43.213 Y120.569 E0.02078
G1 X40.385 Y125.467 E0.46171
G1 X38.117 Y125.467 E0.18508
G1 X41.512 Y119.587 E0.55425
G1 X39.812 Y116.642 E0.27762
G1 X43.213 Y110.752 E0.55524
G1 X40.221 Y107.533 F6000.000
G1 X41.512 Y109.770 F2700.000 E0.21088
G1 X38.111 Y115.660 E0.55524
G1 X34.71 Y115.660 E0.27762
G1 X31.31 Y121.551 E0.55524
G1 X33.01 Y124.496 E0.27762
G1 X32.449 Y125.467 E0.09154
G1 X25.533 Y125.467 E0.56462
G1 X25.533 Y121.739 E0.30433
G1 X26.208 Y120.569 E0.11030
G1 X29.609 Y120.569 E0.27762
G1 X33.01 Y114.679 E0.55524
G1 X31.31 Y111.733 E0.27762
G1 X33.735 Y107.533 E0.39596
G1 X31.468 Y107.533 F6000.000
G1 X29.609 Y110.752 F2700.000 E0.30342
G1 X26.208 Y110.752 E0.27762
G1 X25.533 Y111.922 E0.11030
G1 X25.533 Y107.533 E0.35829
G1 X24.534 Y104.899 F6000.000
G1 X24.466 Y104.899 F1200.000 E0.00355
G1 X24.466 Y103.644 F6000.000
G1 X24.534 Y103.644 F1200.000 E0.00355
G1 X24.534 Y102.389 F6000.000
G1 X24.466 Y102.389 F1200.000 E0.00355
G1 X24.466 Y101.134 F6000.000
G1 X24.534 Y101.134 F1200.000 E0.00355
G1 X24.534 Y99.879 F6000.000
G1 X24.466 Y99.879 F1200.000 E0.00355
G1 X24.466 Y98.625 F6000.000
G1 X24.534 Y98.625 F1200.000 E0.00355
G1 X24.534 Y97.370 F6000.000
G1 X24.466 Y97.370 F1200.000 E0.00355
G1 X24.466 Y96.115 F6000.000
G1 X24.534 Y96.115 F1200.000 E0.00355
G1 X24.534 Y94.860 F6000.000
G1 X24.466 Y94.860 F1200.000 E0.00355
G1 X24.466 Y93.605 F6000.000
G1 X24.534 Y93.605 F1200.000 E0.00355
G1 X24.534 Y92.350 F6000.000
G1 X24.466 Y92.350 F1200.000 E0.00355
G1 X24.466 Y91.095 F6000.000
G1 X24.534 Y91.095 F1200.000 E0.00355
G1 X24.534 Y89.841 F6000.000
G1 X24.466 Y89.841 F1200.000 E0.00355
G1 X24.466 Y88.586 F6000.000
G1 X24.534 Y88.586 F1200.000 E0.00355
G1 X24.534 Y87.331 F6000.000
G1 X24.466 Y87.331 F1200.000 E0.00355
G1 X24.466 Y86.076 F6000.000
G1 X24.534 Y86.076 F1200.000 E0.00355
G1 X24.534 Y84.821 F6000.000
G1 X24.466 Y84.821 F1200.000 E0.00355
G1 X24.466 Y83.566 F6000.000
G1 X24.534 Y83.566 F1200.000 E0.00355
G1 X24.534 Y82.311 F6000.000
G1 X24.466 Y82.311 F1200.000 E0.00355
G1 X24.466 Y81.056 F6000.000
G1 X24.534 Y81.056 F1200.000 E0.00355
G1 X24.534 Y79.802 F6000.000
G1 X24.466 Y79.802 F1200.000 E0.00355
G1 X24.466 Y78.547 F6000.000
G1 X24.534 Y78.547 F1200.000 E0.00355
G1 X24.534 Y77.292 F6000.000
G1 X24.466 Y77.292 F1200.000 E0.00355
G1 X24.466 Y76.037 F6000.000
G1 X24.534 Y76.037 F1200.000 E0.00355
G1 X24.534 Y74.782 F6000.000
G1 X24.466 Y74.782 F1200.000 E0.00355
G1 X24.466 Y73.527 F6000.000
G1 X24.534 Y73.527 F1200.000 E0.00355
G1 X24.534 Y72.272 F6000.000
G1 X24.466 Y72.272 F1200.000 E0.00355
G1 X24.466 Y71.018 F6000.000
G1 X24.534 Y71.018 F1200.000 E0.00355
G1 X24.534 Y69.763 F6000.000
G1 X24.466 Y69.763 F1200.000 E0.00355
G1 X24.466 Y68.508 F6000.000
G1 X24.534 Y68.508 F1200.000 E0.00355
G1 X24.534 Y67.253 F6000.000
G1 X24.466 Y67.253 F1200.000 E0.00355
G1 X24.466 Y65.998 F6000.000
G1 X24.534 Y65.998 F1200.000 E0.00355
G1 X24.534 Y64.743 F6000.000
G1 X24.466 Y64.743 F1200.000 E0.00355
G1 X24.466 Y63.488 F6000.000
G1 X24.534 Y63.488 F1200.000 E0.00355
G1 X24.534 Y62.233 F6000.000
G1 X24.466 Y62.233 F1200.000 E0.00355
G1 X24.466 Y60.979 F6000.000
G1 X24.534 Y60.979 F1200.000 E0.00355
G1 X24.534 Y59.724 F6000.000
G1 X24.466 Y59.724 F1200.000 E0.00355
G1 X24.466 Y58.469 F6000.000
G1 X24.534 Y58.469 F1200.000 E0.00355
G1 X24.534 Y57.214 F6000.000
G1 X24.466 Y57.214 F1200.000 E0.00355
G1 X24.466 Y55.959 F6000.000
G1 X24.534 Y55.959 F1200.000 E0.00355
G1 X24.534 Y54.704 F6000.000
G1 X24.466 Y54.704 F1200.000 E0.00355
G1 X24.466 Y53.449 F6000.000
G1 X24.534 Y53.449 F1200.000 E0.00355
G1 X24.534 Y52.195 F6000.000
G1 X24.466 Y52.195 F1200.000 E0.00355
G1 X24.466 Y50.940 F6000.000
G1 X24.534 Y50.940 F1200.000 E0.00355
G1 X24.534 Y49.685 F6000.000
G1 X24.466 Y49.685 F1200.000 E0.00355
G1 X24.466 Y48.430 F6000.000
G1 X24.534 Y48.430 F1200.000 E0.00355
G1 X24.534 Y47.175 F6000.000
G1 X24.466 Y47.175 F1200.000 E0.00355
G1 X24.466 Y45.920 F6000.000
G1 X24.534 Y45.920 F1200.000 E0.00355
G1 X24.534 Y44.665 F6000.000
G1 X24.466 Y44.665 F1200.000 E0.00355
G1 X24.466 Y43.410 F6000.000
G1 X24.534 Y43.410 F1200.000 E0.00355
G1 X24.534 Y42.156 F6000.000
G1 X24.466 Y42.156 F1200.000 E0.00355
G1 X24.466 Y40.901 F6000.000
G1 X24.534 Y40.901 F1200.000 E0.00355
G1 X24.534 Y39.646 F6000.000
G1 X24.466 Y39.646 F1200.000 E0.00355
G1 X24.466 Y38.391 F6000.000
G1 X24.534 Y38.391 F1200.000 E0.00355
G1 X24.534 Y37.136 F6000.000
G1 X24.466 Y37.136 F1200.000 E0.00355
G1 X24.466 Y35.881 F6000.000
G1 X24.534 Y35.881 F1200.000 E0.00355
G1 X24.534 Y34.626 F6000.000
G1 X24.466 Y34.626 F1200.000 E0.00355
G1 X24.466 Y33.372 F6000.000
G1 X24.534 Y33.372 F1200.000 E0.00355
G1 X24.534 Y32.117 F6000.000
G1 X24.466 Y32.117 F1200.000 E0.00355
G1 X24.466 Y30.862 F6000.000
G1 X24.534 Y30.862 F1200.000 E0.00355
G1 X24.534 Y29.607 F6000.000
G1 X24.466 Y29.607 F1200.000 E0.00355
G1 X24.466 Y28.352 F6000.000
G1 X24.534 Y28.352 F1200.000 E0.00355
G1 X24.534 Y27.097 F6000.000
G1 X24.466 Y27.097 F1200.000 E0.00355
G1 X24.466 Y25.842 F6000.000
G1 X24.534 Y25.842 F1200.000 E0.00355
G1 X25.533 Y4.533 F6000.000
G1 X25.533 Y13.747 F2700.000 E0.75219
G1 X26.208 Y12.577 E0.11030
G1 X29.609 Y12.577 E0.27762
G1 X33.01 Y6.686 E0.55524
G1 X31.767 Y4.533 E0.20301
G1 X39.922 Y4.533 F6000.000
G1 X38.111 Y7.668 F2700.000 E0.29555
G1 X34.71 Y7.668 E0.27762
G1 X31.31 Y13.559 E0.55524
G1 X33.01 Y16.504 E0.27762
G1 X29.609 Y22.394 E0.55524
G1 X26.208 Y22.394 E0.27762
G1 X26.166 Y22.467 E0.00688
G1 X31.834 Y22.467 E0.46270
G1 X34.71 Y17.486 E0.46958
G1 X38.111 Y17.486 E0.27762
G1 X41.512 Y11.595 E0.55524
G1 X39.812 Y8.650 E0.27762
G1 X42.189 Y4.533 E0.38809
G1 X43.213 Y12.577 F6000.000
G1 X39.812 Y18.467 F2700.000 E0.55524
G1 X41.512 Y21.413 E0.27762
G1 X40.903 Y22.467 E0.09942
G1 X43.171 Y22.467 E0.18508
G1 X43.213 Y22.394 E0.00688
G1 X43.467 Y22.394 E0.02078
G1 X43.467 Y12.577 E0.80143
G1 F2100.000 E-2.60000
G1 X128.533 Y4.533 F6000.000
G1 F2100.000 E2.60000
G1 X128.533 Y12.577 F2700.000 E0.65666
G1 X131.635 Y12.577 E0.25328
G1 X135.036 Y6.686 E0.55524
G1 X133.793 Y4.533 E0.20301
G1 X141.948 Y4.533 F6000.000
G1 X140.138 Y7.668 F2700.000 E0.29555
G1 X136.737 Y7.668 E0.27762
G1 X133.336 Y13.559 E0.55524
G1 X135.036 Y16.504 E0.27762
G1 X131.635 Y22.394 E0.55524
G1 X128.533 Y22.394 E0.25328
G1 X128.533 Y22.467 E0.00595
G1 X133.861 Y22.467 E0.43492
G1 X136.737 Y17.486 E0.46958
G1 X140.138 Y17.486 E0.27762
G1 X143.538 Y11.595 E0.55524
G1 X141.838 Y8.650 E0.27762
G1 X144.215 Y4.533 E0.38809
G1 X145.239 Y12.577 F6000.000
G1 X141.838 Y18.467 F2700.000 E0.55524
G1 X143.538 Y21.413 E0.27762
G1 X142.93 Y22.467 E0.09942
G1 X145.197 Y22.467 E0.18508
G1 X145.239 Y22.394 E0.00688
G1 X146.467 Y22.394 E0.10028
G1 X146.467 Y12.577 E0.80143
G1 X147.534 Y25.842 F6000.000
G1 X147.466 Y25.842 F1200.000 E0.00355
G1 X147.466 Y27.097 F6000.000
G1 X147.534 Y27.097 F1200.000 E0.00355
G1 X147.534 Y28.352 F6000.000
G1 X147.466 Y28.352 F1200.000 E0.00355
G1 X147.466 Y29.607 F6000.000
G1 X147.534 Y29.607 F1200.000 E0.00355
G1 X147.534 Y30.862 F6000.000
G1 X147.466 Y30.862 F1200.000 E0.00355
G1 X147.466 Y32.117 F6000.000
G1 X147.534 Y32.117 F1200.000 E0.00355
G1 X147.534 Y33.372 F6000.000
G1 X147.466 Y33.372 F1200.000 E0.00355
G1 X147.466 Y34.626 F6000.000
G1 X147.534 Y34.626 F1200.000 E0.00355
G1 X147.534 Y35.881 F6000.000
G1 X147.466 Y35.881 F1200.000 E0.00355
G1 X147.466 Y37.136 F6000.000
G1 X147.534 Y37.136 F1200.000 E0.00355
G1 X147.534 Y38.391 F6000.000
G1 X147.466 Y38.391 F1200.000 E0.00355
G1 X147.466 Y39.646 F6000.000
G1 X147.534 Y39.646 F1200.000 E0.00355
G1 X147.534 Y40.901 F6000.000
G1 X147.466 Y40.901 F1200.000 E0.00355
G1 X147.466 Y42.156 F6000.000
G1 X147.534 Y42.156 F1200.000 E0.00355
G1 X147.534 Y43.410 F6000.000
G1 X147.466 Y43.410 F1200.000 E0.00355
G1 X147.466 Y44.665 F6000.000
G1 X147.534 Y44.665 F1200.000 E0.00355
G1 X147.534 Y45.920 F6000.000
G1 X147.466 Y45.920 F1200.000 E0.00355
G1 X147.466 Y47.175 F6000.000
G1 X147.534 Y47.175 F1200.000 E0.00355
G1 X147.534 Y48.430 F6000.000
G1 X147.466 Y48.430 F1200.000 E0.00355
G1 X147.466 Y49.685 F6000.000
G1 X147.534 Y49.685 F1200.000 E0.00355
G1 X147.534 Y50.940 F6000.000
G1 X147.466 Y50.940 F1200.000 E0.00355
G1 X147.466 Y52.195 F6000.000
G1 X147.534 Y52.195 F1200.000 E0.00355
G1 X147.534 Y53.449 F6000.000
G1 X147.466 Y53.449 F1200.000 E0.00355
G1 X147.466 Y54.704 F6000.000
G1 X147.534 Y54.704 F1200.000 E0.00355
G1 X147.534 Y55.959 F6000.000
G1 X147.466 Y55.959 F1200.000 E0.00355
G1 X147.466 Y57.214 F6000.000
G1 X147.534 Y57.214 F1200.000 E0.00355
G1 X147.534 Y58.469 F6000.000
G1 X147.466 Y58.469 F1200.000 E0.00355
G1 X147.466 Y59.724 F6000.000
G1 X147.534 Y59.724 F1200.000 E0.00355
G1 X147.534 Y60.979 F6000.000
G1 X147.466 Y60.979 F1200.000 E0.00355
G1 X147.466 Y62.233 F6000.000
G1 X147.534 Y62.233 F1200.000 E0.00355
G1 X147.534 Y63.488 F6000.000
G1 X147.466 Y63.488 F1200.000 E0.00355
G1 X147.466 Y64.743 F6000.000
G1 X147.534 Y64.743 F1200.000 E0.00355
G1 X147.534 Y65.998 F6000.000
G1 X147.466 Y65.998 F1200.000 E0.00355
G1 X147.466 Y67.253 F6000.000
G1 X147.534 Y67.253 F1200.000 E0.00355
G1 X147.534 Y68.508 F6000.000
G1 X147.466 Y68.508 F1200.000 E0.00355
G1 X147.466 Y69.763 F6000.000
G1 X147.534 Y69.763 F1200.000 E0.00355
G1 X147.534 Y71.018 F6000.000
G1 X147.466 Y71.018 F1200.000 E0.00355
G1 X147.466 Y72.272 F6000.000
G1 X147.534 Y72.272 F1200.000 E0.00355
G1 X147.534 Y73.527 F6000.000
G1 X147.466 Y73.527 F1200.000 E0.00355
G1 X147.466 Y74.782 F6000.000
